X: 23398
T: Lep The Table
R: slide
M: 12/8
K: Dmajor
|:FAA BAE|FAF D2E|FAA BAF|~E3 EDE|
FAA BAE|FAF D2E|FAA ABA|1 d3 dAG:|2 d3 dcB||
|:Add fdd|efd BAF|Ade fed|e3 edB|
Ade faf|efd Bab|a2f efe|1 d3 ABB:|2 d3 D2E||

